X: 118
M:2/4
L:1/16
K:D
u(FG)|
(cd)|
.e(A^GA) .e(AGA) | .g.A.f.A .e(A^GA) | .d.f.A.d .g.f.e.d | .c.e.d.f =
.e2(cd)|
.e(A^GA) .e(AGA) | .g.A.f.A .e(A^GA) | .F.A.d.f .E.A.c.e | d2f2d2        =
 :|


